src/img/header/telegram.svg

<svg width="36" height="36" viewBox="0 0 36 36" fill="none" xmlns="http://www.w3.org/2000/svg">
<rect width="36" height="36" rx="18" fill="#2C4867"/>
<path d="M10.5806 17.9753L10.588 17.9724L10.5953 17.9693C14.6547 16.2417 17.3574 15.1045 18.7071 14.5561C20.6421 13.7699 21.7991 13.3133 22.5363 13.052C23.2817 12.7878 23.547 12.743 23.7211 12.74C23.7402 12.7397 23.7921 12.7424 23.8492 12.7557C23.8762 12.762 23.8989 12.7695 23.9165 12.777C23.925 12.7806 23.9313 12.7839 23.9356 12.7864C23.9383 12.7879 23.94 12.7891 23.9408 12.7896C23.9411 12.7902 23.9415 12.791 23.942 12.7921C23.946 12.8008 23.9513 12.8171 23.9576 12.8528L24.4485 12.7668L23.9576 12.8528C23.9629 12.8833 23.9716 12.9507 23.9765 13.033C23.9814 13.116 23.9814 13.1949 23.9757 13.2534C23.7688 15.3779 22.8665 20.5752 22.4049 22.9856C22.2208 23.9472 21.9202 23.9741 21.8999 23.9759L21.8998 23.9759C21.6395 23.9993 21.3897 23.921 21.0811 23.7439C20.9252 23.6544 20.7652 23.5462 20.5853 23.4214C20.5565 23.4014 20.527 23.3809 20.4971 23.3601C20.3455 23.2545 20.1805 23.1396 20.0086 23.0295C19.3998 22.6397 18.9234 22.3234 18.4489 22.0078L18.3857 21.9658C17.9321 21.664 17.4743 21.3595 16.9025 20.9914C16.5842 20.7865 16.4673 20.6466 16.4296 20.5762C16.4124 20.5438 16.4112 20.539 16.4287 20.4999C16.4624 20.4249 16.5451 20.3173 16.7136 20.1498C16.7847 20.0791 16.8617 20.0066 16.9473 19.926C16.9583 19.9157 16.9693 19.9053 16.9805 19.8947C17.0774 19.8034 17.1829 19.7033 17.2879 19.5968C17.2875 19.5972 17.2886 19.5961 17.2919 19.5929L17.3047 19.5806C17.3157 19.5703 17.33 19.5568 17.348 19.5401C17.3839 19.5068 17.4316 19.463 17.4899 19.4098C17.595 19.3138 17.7318 19.1895 17.8914 19.0446L17.9442 18.9967C18.308 18.6663 18.776 18.241 19.24 17.8129C19.7033 17.3855 20.166 16.9522 20.5186 16.6063C20.6942 16.434 20.8475 16.2784 20.9612 16.1538C21.0175 16.0921 21.0702 16.0314 21.1126 15.9761C21.1336 15.9487 21.1573 15.916 21.1788 15.8806C21.1951 15.8538 21.2336 15.7885 21.2543 15.7023C21.2745 15.6179 21.28 15.5102 21.2638 15.4034C21.2475 15.2959 21.1969 15.1116 21.0311 14.9676C20.8691 14.8269 20.6857 14.7987 20.565 14.7978C20.454 14.797 20.3541 14.8192 20.3111 14.8288L20.3068 14.8297C20.2291 14.8469 20.1594 14.8836 20.1435 14.892C20.1425 14.8925 20.1417 14.8929 20.1411 14.8932C20.1088 14.9098 20.0718 14.9306 20.0326 14.9532C19.9532 14.9992 19.8467 15.0637 19.7152 15.1453C19.4513 15.3091 19.0736 15.5497 18.5835 15.8662C17.6026 16.4994 16.1636 17.4416 14.2671 18.6921L14.2671 18.6921L14.2639 18.6943C13.7545 19.036 13.3525 19.1609 13.0431 19.1544C12.8538 19.1504 12.5366 19.0941 12.1495 18.9992C11.7738 18.9072 11.3683 18.7882 11.0196 18.6775C10.8969 18.6385 10.7837 18.6037 10.6794 18.5716C10.3805 18.4797 10.1538 18.41 9.9803 18.3279C9.96109 18.3188 9.94397 18.3101 9.92875 18.302C9.93232 18.2993 9.93603 18.2966 9.93988 18.2938C10.0625 18.2048 10.2685 18.0965 10.5806 17.9753Z" fill="white" stroke="white"/>
</svg>

<svg width="36" height="36" fill="none" xmlns="http://www.w3.org/2000/svg"><rect width="36" height="36" rx="18" fill="#2C4867"/><path d="m10.58 17.975.008-.003.007-.003c4.06-1.727 6.762-2.865 8.112-3.413 1.935-.786 3.092-1.243 3.83-1.504.745-.264 1.01-.309 1.184-.312a.595.595 0 0 1 .195.037.17.17 0 0 1 .02.01c.002 0 .004.002.005.003l.001.002c.004.009.01.025.016.06l.49-.085-.49.086a1.802 1.802 0 0 1 .018.4c-.207 2.125-1.11 7.322-1.571 9.733-.184.961-.485.988-.505.99-.26.023-.51-.055-.819-.232a7.05 7.05 0 0 1-.584-.384 15.15 15.15 0 0 0-.488-.33c-.61-.39-1.086-.707-1.56-1.022l-.063-.042c-.454-.302-.912-.607-1.483-.975-.319-.204-.436-.344-.473-.415-.018-.032-.019-.037-.001-.076.033-.075.116-.183.285-.35.07-.07.148-.143.233-.224l.034-.031c.096-.092.202-.192.307-.298l.004-.004.013-.012.043-.04.142-.131.401-.365.053-.048c.364-.33.832-.756 1.296-1.184.463-.427.926-.86 1.279-1.207.175-.172.329-.328.442-.452a2.82 2.82 0 0 0 .152-.178c.02-.027.044-.06.066-.095a.627.627 0 0 0 .075-.179.808.808 0 0 0 .01-.299.715.715 0 0 0-.233-.435.71.71 0 0 0-.466-.17c-.111-.001-.21.021-.254.03l-.004.002a.69.69 0 0 0-.166.063l-.108.06c-.08.046-.186.11-.318.192-.264.164-.641.405-1.131.721-.981.633-2.42 1.576-4.317 2.826l-.003.002c-.51.342-.912.467-1.22.46-.19-.004-.507-.06-.895-.155a18.13 18.13 0 0 1-1.13-.322l-.34-.105c-.299-.092-.525-.162-.699-.244a1.233 1.233 0 0 1-.051-.026.744.744 0 0 1 .01-.008c.123-.09.33-.198.642-.319Z" fill="#fff" stroke="#fff"/></svg>
